X:715
T:illegible title
A:Wyresdale, Lancashire
B:E and J Winder, 1835-41
L:1/8
M:C
O:England
U:T = !wedge!
Z:Richard Robinson 
%%TUNEURL: http://www.leeds.ac.uk/music/Info/RRTuneBk/gettune/00001061.html
%%ID:00001061
K:F
f3 g     TfTfTfTf  | a3b    aaaa   | c'a ff bgee     | f3 g/e/ f2 z2    | \
a3b/g/   TaTaTaTa  | c'bag  fgab   | a2 g>g g2 z2    |
%
g2 e>f  g2 e>f   | g/f/e/f/ d>d d2 zf |   f2 d>f f2 d>f | e2 c>c c2 zc/d/ | \
e3f     TgTgTgTg | a3b   Tc'Tc'Tc'Tc' | ! dcde   fefa   | agfe   gfed     | \
c2zg/e/ TcTcTdTd | c2zg/e/ TcTcTdTd   |   c2 c>c c2 z2  ||
%
|: g4     e4          | f4       d4       | c=Bcd     ecge  | d2 d>d d2z2     |  \
TfTf(gf)  TeTe(fe)    | TfTf(gf) TdTd(ed) | c=Bcd     efga  | b2 b>b b2 zg/a/ |
b2 b>b    b2 z/c/d/e/ | f3g      ac'ba    | g2 g>g    g2 zc | c2A>c  c2A>c    | \
c2{fg}ag  fedc        | B2 G>B   B2 G>B   | B2 {ef}gf ed cB |
A3B       TcTcTcTc    | d3e      TfTfTfTf | gfga      babc'  | \
d'c'ba                | f2 zc'/a/ ffTgTg  | d2 zc'/a/ ffTgTg | f2 f>f f2 ::
%%newpage
%page 54
